X:1
T:Violet Mazurka
T:Violet Mazurka
T:James Buckley
C:James Buckley
L:1/8
M:3/4
K:A
V:1 treble 
V:1
 E>A | c>^B c2 A2 | [A,E]4 c2 A2 | [A,E]4 E>A | c>^B c2 A2 | [A,E]4 c2 | e>d [GB]2 [GB]2 | %7
 e>d [GB]2 [GB]2 | e>d [GB]2 [GB]2 | c>BA>GA>B | c>^B c2 A2 | [A,E]4 E>A | c>^B c2 A2 | [A,E]4 c2 | %14
{EGB} e>d [EGB]2 [EG]2 |{EGB} e>d [EGB]2 [EGB]2 |{EGB} e>d [EGB]2 [EGBe]2 | [A,A]4 :| G>A | %19
 B>G E2 e2 | [EGB]4 G>A | B>G E2 e2 | [EGB]4 B2 | B>A F2 F2 | B>A F2 F2 | B>A F2 F2 | G>FE>FG>A | %27
 B>G E2{EGB} e2 | [EGB]4 G>A | B>G E2{EGB} e2 | [EGB]4 B2 | B>A F2 F2 | B>A F2 B2 | %33
 B>G E2{EGB} e2 | [EGB]4 G>A | B>G E2{EGB} e2 | [EGB]4 B2 B>A F2 F2 | B>A F2 B2 | ^d>cB>AG>F | %39
 E2 FGAB | c>^B c2 A2 | [A,E]4 E>A | c>^B c2 A2 | [A,E]4 c2 |{EGB} e>d [EGB]2 [EGB]2 | %45
{EGB} e>d [EGB]2 [EGB]2 |{EGB} e>d [EGB]2 [EGB]2 | c>^B c2 A2 | [A,E]4 E>A | c>^B c2 A2 | %50
 [A,E]4 c2 |{EGB} g>f [EGB]2 [EGB]2 |{EGB} e>d [EGB]2 [EGB]2 |{EGB} e>d [EGB]2 [EGB]2 | %54
{EGB} e>d [EGB]2{EGB} e2 | [A,A]4 z2 || %56

